img/section-option-1.svg

<svg width="58" height="98" viewBox="0 0 58 98" fill="none" xmlns="http://www.w3.org/2000/svg">
<path fill-rule="evenodd" clip-rule="evenodd" d="M15.7001 35.9758L15.711 20.1276C15.711 18.2973 16.3969 16.5851 17.6508 15.3063C19.0439 13.8998 21.0372 13.0964 23.1377 13.0964C24.7774 13.0964 26.3529 13.607 27.5745 14.5157C29.0536 15.6215 29.9751 17.2903 30.1681 19.1958C30.1681 19.2387 31.0145 27.5048 31.7754 34.9035C37.1017 31.7399 40.6921 25.8915 40.6921 19.1958C40.6921 9.14305 32.6327 0.99585 22.6877 0.99585C12.7426 0.99585 4.68317 9.14305 4.68317 19.1958C4.67262 26.735 9.21663 33.2129 15.7001 35.9758ZM16.4184 95.8307C16.4184 97.0204 17.3829 97.996 18.5618 97.996H50.2408C51.4197 97.996 52.3841 97.0204 52.3841 95.8307V90.8662H16.4184V95.8307ZM54.6668 52.0204C56.6603 52.6693 57.9999 54.5434 57.9999 56.6562L57.9785 73.9249C57.9785 76.493 57.2923 79.0057 55.9956 81.2048L52.3628 87.4126H16.3969C6.38715 77.1633 1.30761 66.2341 0.535781 61.543C1.83582e-05 58.3245 2.21841 56.1703 4.68317 56.1703C6.08709 56.1703 7.57689 56.8623 8.69142 58.4757C9.04504 58.9973 9.43086 59.5596 9.85963 60.1767C13.0256 64.8124 16.2752 64.9095 17.7582 64.9538L17.8113 64.9553H17.8435C17.8867 64.9553 17.9402 64.9553 17.9829 64.943H18.0044C18.5187 64.8686 18.8939 64.4344 18.8939 63.9144L18.9154 20.1157C18.9045 17.6574 21.0479 16.3365 23.127 16.3365C24.9596 16.3365 26.7386 17.3643 26.9638 19.5324C26.9638 19.5761 29.7288 46.6039 29.7394 46.6894V46.7019H29.75C30.511 46.0182 31.7754 45.6188 33.2222 45.6188C33.7583 45.6188 34.3156 45.6724 34.8834 45.7794C36.716 46.1488 48.7191 50.0583 54.6668 52.0204Z" fill="#18CFAB"/>
</svg>

<svg width="58" height="98" fill="none" xmlns="http://www.w3.org/2000/svg"><path fill-rule="evenodd" clip-rule="evenodd" d="M15.7 35.976l.011-15.848c0-1.83.686-3.543 1.94-4.822 1.393-1.406 3.386-2.21 5.487-2.21 1.64 0 3.215.511 4.436 1.42 1.48 1.105 2.401 2.774 2.594 4.68 0 .043.847 8.309 1.607 15.707a18.247 18.247 0 008.917-15.707c0-10.053-8.06-18.2-18.004-18.2-9.945 0-18.005 8.147-18.005 18.2-.01 7.539 4.534 14.017 11.017 16.78zm.718 59.855c0 1.19.965 2.165 2.144 2.165H50.24c1.179 0 2.143-.976 2.143-2.165v-4.965H16.418v4.965zm38.249-43.81C56.66 52.668 58 54.542 58 56.655l-.022 17.269c0 2.568-.686 5.08-1.982 7.28l-3.633 6.208H16.397C6.387 77.163 1.307 66.234.536 61.543 0 58.325 2.218 56.17 4.683 56.17c1.404 0 2.894.692 4.008 2.306.354.521.74 1.084 1.169 1.7 3.166 4.636 6.415 4.733 7.898 4.778l.053.001h.032c.044 0 .097 0 .14-.012h.021c.515-.074.89-.509.89-1.029l.021-43.798c-.01-2.459 2.133-3.78 4.212-3.78 1.833 0 3.612 1.028 3.837 3.196 0 .044 2.765 27.072 2.775 27.157v.013h.011c.761-.684 2.025-1.083 3.472-1.083a8.99 8.99 0 011.661.16c1.833.37 13.836 4.28 19.784 6.241z" fill="#18CFAB"/></svg>
